static/assets/img/icons/theme/general/scale.svg

<svg height="24" viewBox="0 0 24 24" width="24" xmlns="http://www.w3.org/2000/svg"><g fill="none" fill-rule="evenodd"><path d="m0 0h24v24h-24z" opacity="0"/><g fill="#000"><path d="m10 14h-5c-.66666667-.1143819-1-.4477153-1-1s.33333333-.8856181 1-1h7v7c0 .6666667-.3333333 1-1 1s-1-.3333333-1-1zm5-5h5c.6666667.11438192 1 .44771525 1 1 0 .5522847-.3333333.8856181-1 1h-7v-7c0-.66666667.3333333-1 1-1s1 .33333333 1 1z" fill-rule="nonzero"/><path d="m3.87867966 18.7071068 2.82842712-2.8284271c.39052429-.3905243 1.02368927-.3905243 1.41421356 0 .3905243.3905242.3905243 1.0236892 0 1.4142135l-2.82842712 2.8284271c-.39052429.3905243-1.02368927.3905243-1.41421356 0-.3905243-.3905242-.3905243-1.0236892 0-1.4142135zm13.00000004-13.00000002 2.8284271-2.82842712c.3905243-.3905243 1.0236893-.3905243 1.4142135 0 .3905243.39052429.3905243 1.02368927 0 1.41421356l-2.8284271 2.82842712c-.3905243.3905243-1.0236893.3905243-1.4142135 0-.3905243-.39052429-.3905243-1.02368927 0-1.41421356z" opacity=".3"/></g></g></svg>

<svg width="24px" height="24px" viewBox="0 0 24 24" version="1.1" xmlns="http://www.w3.org/2000/svg" xmlns:xlink="http://www.w3.org/1999/xlink">
    <title>Icon For Scale</title>
    <g stroke="none" stroke-width="1" fill="none" fill-rule="evenodd">
        <polygon opacity="0" points="0 0 24 0 24 24 0 24"></polygon>
        <path d="M10,14 L5,14 C4.33333333,13.8856181 4,13.5522847 4,13 C4,12.4477153 4.33333333,12.1143819 5,12 L12,12 L12,19 C12,19.6666667 11.6666667,20 11,20 C10.3333333,20 10,19.6666667 10,19 L10,14 Z M15,9 L20,9 C20.6666667,9.11438192 21,9.44771525 21,10 C21,10.5522847 20.6666667,10.8856181 20,11 L13,11 L13,4 C13,3.33333333 13.3333333,3 14,3 C14.6666667,3 15,3.33333333 15,4 L15,9 Z" fill="#000000" fill-rule="nonzero"></path>
        <path d="M3.87867966,18.7071068 L6.70710678,15.8786797 C7.09763107,15.4881554 7.73079605,15.4881554 8.12132034,15.8786797 C8.51184464,16.2692039 8.51184464,16.9023689 8.12132034,17.2928932 L5.29289322,20.1213203 C4.90236893,20.5118446 4.26920395,20.5118446 3.87867966,20.1213203 C3.48815536,19.7307961 3.48815536,19.0976311 3.87867966,18.7071068 Z M16.8786797,5.70710678 L19.7071068,2.87867966 C20.0976311,2.48815536 20.7307961,2.48815536 21.1213203,2.87867966 C21.5118446,3.26920395 21.5118446,3.90236893 21.1213203,4.29289322 L18.2928932,7.12132034 C17.9023689,7.51184464 17.2692039,7.51184464 16.8786797,7.12132034 C16.4881554,6.73079605 16.4881554,6.09763107 16.8786797,5.70710678 Z" fill="#000000" opacity="0.3"></path>
    </g>
</svg>
